Newaita-dark/actions/16/format-border-set-right.svg

<svg height="16" viewBox="0 0 16 16" width="16" xmlns="http://www.w3.org/2000/svg"><g fill="#e0e0e0"><path d="m1.324219 13.355469v-10.585938c0-.730469.589843-1.320312 1.320312-1.320312h10.585938c.730469 0 1.324219.589843 1.324219 1.320312v10.585938c0 .730469-.59375 1.324219-1.324219 1.324219h-10.585938c-.730469 0-1.320312-.59375-1.320312-1.324219zm0 0" fill-opacity=".392157"/><path d="m7.609375 14.679688v-13.230469h.660156v13.230469zm0 0"/><path d="m1.324219 7.695312h13.230469v.699219h-13.230469zm0 0"/></g><path d="m13.230469 14.679688c.734375 0 1.324219-.589844 1.324219-1.324219v-10.585938c0-.730469-.589844-1.320312-1.324219-1.320312zm0 0" fill="#7e57c2"/></svg>

<?xml version="1.0" encoding="UTF-8"?>
<svg xmlns="http://www.w3.org/2000/svg" xmlns:xlink="http://www.w3.org/1999/xlink" width="16px" height="16px" viewBox="0 0 16 16" version="1.1">
<g id="surface1">
<path style=" stroke:none;fill-rule:nonzero;fill:rgb(87.843138%,87.843138%,87.843138%);fill-opacity:0.392157;" d="M 1.324219 13.355469 L 1.324219 2.769531 C 1.324219 2.039062 1.914062 1.449219 2.644531 1.449219 L 13.230469 1.449219 C 13.960938 1.449219 14.554688 2.039062 14.554688 2.769531 L 14.554688 13.355469 C 14.554688 14.085938 13.960938 14.679688 13.230469 14.679688 L 2.644531 14.679688 C 1.914062 14.679688 1.324219 14.085938 1.324219 13.355469 Z M 1.324219 13.355469 "/>
<path style=" stroke:none;fill-rule:nonzero;fill:rgb(87.843138%,87.843138%,87.843138%);fill-opacity:1;" d="M 7.609375 14.679688 L 7.609375 1.449219 L 8.269531 1.449219 L 8.269531 14.679688 Z M 7.609375 14.679688 "/>
<path style=" stroke:none;fill-rule:nonzero;fill:rgb(87.843138%,87.843138%,87.843138%);fill-opacity:1;" d="M 1.324219 7.695312 L 14.554688 7.695312 L 14.554688 8.394531 L 1.324219 8.394531 Z M 1.324219 7.695312 "/>
<path style=" stroke:none;fill-rule:nonzero;fill:rgb(49.411765%,34.117648%,76.078433%);fill-opacity:1;" d="M 13.230469 14.679688 C 13.964844 14.679688 14.554688 14.089844 14.554688 13.355469 L 14.554688 2.769531 C 14.554688 2.039062 13.964844 1.449219 13.230469 1.449219 Z M 13.230469 14.679688 "/>
</g>
</svg>
